src/icons/dart.svg

<svg width="16" height="16" viewBox="0 0 16 16" fill="none" xmlns="http://www.w3.org/2000/svg">
<path d="M8.32495 2.30801C8.18601 2.30841 8.05278 2.36336 7.95395 2.46101L7.94795 2.46501L4.47095 4.47501L7.93895 7.94401V7.94701L12.1089 12.116L12.9039 10.684L10.0379 3.80301L8.69995 2.46501C8.65085 2.41545 8.59245 2.37607 8.5281 2.34913C8.46375 2.32219 8.39471 2.30821 8.32495 2.30801Z" fill="#2ECC71"/>
<path d="M4.4789 4.46701L2.4689 7.94201L2.4659 7.94701C2.41679 7.99611 2.37788 8.05445 2.35142 8.11866C2.32497 8.18287 2.31149 8.25169 2.31177 8.32114C2.31205 8.39058 2.32608 8.45929 2.35305 8.52329C2.38002 8.58728 2.41939 8.64531 2.4689 8.69401L4.1339 10.36L10.6469 12.923L12.1199 12.104L12.0799 12.064L12.0699 12.066L7.9869 7.97601H7.9819L4.4789 4.46701Z" fill="#3965BD"/>
<path d="M4.46997 4.46899L8.01897 8.01999H8.02397L12.108 12.109L13.663 11.812L13.665 7.21199L12.023 5.60399C11.663 5.25099 11.111 5.02399 10.556 4.94999L10.557 4.93199L4.46997 4.46899Z" fill="#3965BD"/>
<path d="M4.47412 4.47299L8.02512 8.02299V8.02799L12.1111 12.115L11.8141 13.669H7.21412L5.60712 12.027C5.25412 11.667 5.02712 11.114 4.95312 10.559L4.93512 10.56L4.47412 4.47299Z" fill="#2ECC71"/>
</svg>

<svg xmlns="http://www.w3.org/2000/svg" width="16" height="16" fill="none"><path fill="#2ECC71" d="M8.325 2.308a.53.53 0 0 0-.371.153l-.006.004-3.477 2.01 3.468 3.469v.003l4.17 4.169.795-1.432-2.866-6.881L8.7 2.465a.53.53 0 0 0-.375-.157"/><path fill="#3965BD" d="m4.479 4.467-2.01 3.475-.003.005a.526.526 0 0 0 .003.747l1.665 1.666 6.513 2.563 1.473-.819-.04-.04-.01.002-4.083-4.09h-.005z"/><path fill="#3965BD" d="M4.47 4.469 8.019 8.02h.005l4.084 4.089 1.555-.297.002-4.6-1.642-1.608c-.36-.353-.912-.58-1.467-.654l.001-.018z"/><path fill="#2ECC71" d="m4.474 4.473 3.551 3.55v.005l4.086 4.087-.297 1.554h-4.6l-1.607-1.642c-.353-.36-.58-.913-.654-1.468l-.018.001z"/></svg>
